packages/core/src/svgs/networks/branded/scroll.svg

<svg width="24" height="24" viewBox="0 0 24 24" fill="none" xmlns="http://www.w3.org/2000/svg">
<path d="M20.5716 15.5147V3.9198C20.5564 2.94718 19.7829 2.16602 18.8102 2.16602H6.70994C4.09841 2.2043 2 4.34101 2 6.9602C2 7.84091 2.2374 8.59909 2.59736 9.26539C2.9037 9.81677 3.38618 10.3375 3.861 10.7281C3.99885 10.8354 3.92992 10.7894 4.34347 11.0421C4.91021 11.3867 5.56117 11.563 5.56117 11.563L5.55351 18.5015C5.56882 18.8307 5.59946 19.1447 5.69137 19.4435C5.95941 20.4237 6.64101 21.1743 7.56002 21.5341C7.94294 21.6874 8.37947 21.7869 8.84664 21.7946L18.5116 21.8253C20.4338 21.8253 21.9961 20.2629 21.9961 18.333C22.0039 17.1842 21.4295 16.1579 20.5716 15.5147Z" fill="#FFEEDA"/>
<path d="M20.8111 18.4189C20.7729 19.6519 19.7543 20.6475 18.5059 20.6475L11.8584 20.6245C12.3869 20.0119 12.7085 19.2154 12.7085 18.3423C12.7085 16.9791 11.8968 16.0371 11.8968 16.0371H18.5136C19.7849 16.0371 20.8187 17.0709 20.8187 18.3423L20.8111 18.4189Z" fill="#EBC28E"/>
<path d="M4.49664 9.749C3.73081 9.02143 3.19471 8.08711 3.19471 6.96897V6.8541C3.25598 4.95481 4.8183 3.42313 6.7176 3.36952H18.818C19.1319 3.38483 19.3847 3.60693 19.3847 3.92859V14.1679C19.6603 14.2139 19.7982 14.2521 20.0663 14.3517C20.2807 14.4283 20.5716 14.5967 20.5716 14.5967V3.92859C20.5564 2.95597 19.7829 2.1748 18.8102 2.1748H6.70994C4.09841 2.21309 2 4.3498 2 6.96897C2 8.493 2.69692 9.795 3.83037 10.7063C3.90695 10.7676 3.98354 10.8518 4.18265 10.8518C4.53494 10.8518 4.78767 10.5685 4.77235 10.2621C4.77235 10.0017 4.65748 9.90987 4.49664 9.749Z" fill="#101010"/>
<path d="M18.5076 14.842H9.01872C8.38307 14.8496 7.86995 15.3627 7.86995 15.9984V17.3616C7.88528 17.9896 8.42136 18.5256 9.06466 18.5256H9.76922V17.3616H9.05701V16.029C9.05701 16.029 9.23316 16.029 9.43993 16.029C10.6423 16.029 11.523 17.1395 11.523 18.3342C11.523 19.3911 10.5581 20.7389 8.94979 20.6318C7.52533 20.5398 6.75183 19.2686 6.75183 18.3342V6.76996C6.75183 6.24919 6.32295 5.82031 5.80218 5.82031H4.85254V7.00737H5.55712V18.3418C5.51882 20.647 7.19601 21.8035 8.94979 21.8035L18.5152 21.8341C20.4375 21.8341 21.9998 20.2718 21.9998 18.3418C22.0074 16.4119 20.4375 14.842 18.5076 14.842ZM20.8127 18.4185C20.7744 19.6514 19.7559 20.647 18.5076 20.647L11.86 20.624C12.3884 20.0114 12.7101 19.2149 12.7101 18.3418C12.7101 16.9786 11.8983 16.0367 11.8983 16.0367H18.5152C19.7865 16.0367 20.8204 17.0705 20.8204 18.3418L20.8127 18.4185Z" fill="#101010"/>
<path d="M15.9469 7.22123H8.79395V6.03418H15.9469C16.2685 6.03418 16.5366 6.29456 16.5366 6.62387C16.5443 6.95319 16.2839 7.22123 15.9469 7.22123Z" fill="#101010"/>
<path d="M15.9469 12.7887H8.79395V11.6094H15.9469C16.2685 11.6094 16.5366 11.8697 16.5366 12.1991C16.5443 12.5207 16.2839 12.7887 15.9469 12.7887Z" fill="#101010"/>
<path d="M17.2106 10.0015H8.79395V8.81445H17.2029C17.5246 8.81445 17.7926 9.07484 17.7926 9.40415C17.808 9.73347 17.5398 10.0015 17.2106 10.0015Z" fill="#101010"/>
</svg>

<svg xmlns="http://www.w3.org/2000/svg" width="24" height="24" fill="none" viewBox="0 0 24 24">
    <path fill="#FFEEDA" d="M20.572 15.515V3.92a1.765 1.765 0 0 0-1.762-1.754H6.71C4.098 2.204 2 4.341 2 6.96c0 .88.237 1.64.597 2.305.307.552.79 1.072 1.264 1.463.138.107.069.061.482.314.567.345 1.218.521 1.218.521l-.007 6.938c.015.33.045.644.137.942.268.98.95 1.731 1.869 2.091.383.153.82.253 1.287.26l9.665.031a3.49 3.49 0 0 0 3.484-3.492c.008-1.149-.566-2.175-1.424-2.818"/>
    <path fill="#EBC28E" d="M20.811 18.419a2.307 2.307 0 0 1-2.305 2.229l-6.648-.023c.529-.613.85-1.41.85-2.283a3.83 3.83 0 0 0-.811-2.305h6.617a2.307 2.307 0 0 1 2.305 2.305z"/>
    <path fill="#101010" d="M4.497 9.749c-.766-.728-1.302-1.662-1.302-2.78v-.115c.061-1.9 1.623-3.43 3.523-3.484h12.1c.314.015.567.237.567.559v10.239c.275.046.413.084.681.184.215.076.506.245.506.245V3.929a1.765 1.765 0 0 0-1.762-1.754H6.71C4.098 2.213 2 4.35 2 6.969c0 1.524.697 2.826 1.83 3.737.077.062.154.146.353.146a.575.575 0 0 0 .59-.59c0-.26-.116-.352-.276-.513"/>
    <path fill="#101010" d="M18.508 14.842h-9.49a1.16 1.16 0 0 0-1.148 1.156v1.364a1.21 1.21 0 0 0 1.195 1.164h.704v-1.164h-.712v-1.333h.383c1.202 0 2.083 1.11 2.083 2.305 0 1.057-.965 2.405-2.573 2.298-1.425-.092-2.198-1.363-2.198-2.298V6.77c0-.52-.43-.95-.95-.95h-.95v1.187h.705v11.335c-.038 2.305 1.639 3.462 3.393 3.462l9.565.03A3.49 3.49 0 0 0 22 18.342a3.49 3.49 0 0 0-3.492-3.5m2.305 3.577a2.31 2.31 0 0 1-2.305 2.228l-6.648-.023c.528-.613.85-1.41.85-2.282a3.83 3.83 0 0 0-.812-2.305h6.617a2.307 2.307 0 0 1 2.305 2.305zM15.947 7.221H8.794V6.034h7.153c.322 0 .59.26.59.59a.58.58 0 0 1-.59.597"/>
    <path fill="#101010" d="M15.947 12.789H8.794v-1.18h7.153c.322 0 .59.26.59.59a.58.58 0 0 1-.59.59m1.263-2.787H8.795V8.814h8.409c.322 0 .59.26.59.59a.576.576 0 0 1-.582.598"/>
</svg>
